icons/1_Primary/PulseHeberg.svg

<svg xmlns="http://www.w3.org/2000/svg" width="1024" height="1024" fill="none">
   <g clip-path="url(#a)">
      <path fill="#BD9AFF" d="M512 1024c282.77 0 512-229.23 512-512S794.77 0 512 0 0 229.23 0 512s229.23 512 512 512Z"/>
      <path fill="#fff" d="M386.98 255.97a35.723 35.723 0 0 0-35.72 35.72 35.72 35.72 0 1 0 35.72-35.72Zm127.01 3.969c-17.464 0-31.751 14.288-31.751 31.75 0 17.465 14.288 31.752 31.751 31.752 78.983 0 146.45 48.025 175.82 116.29 1.588 3.572 2.382 7.937 2.382 12.303 0 17.464-14.288 31.753-31.751 31.753-13.097 0-24.608-7.939-29.371-19.45-19.448-45.643-64.694-77.394-117.08-77.394H386.98c-17.464 0-31.751 14.288-31.751 31.75v317.52c0 17.465 14.288 31.752 31.75 31.752 17.465 0 31.754-14.288 31.754-31.751v-285.76h95.252c34.927 0 63.505 28.578 63.505 63.505 0 34.927-28.578 63.503-63.505 63.503-17.464 0-31.751 14.288-31.751 31.75 0 17.464 14.288 31.752 31.75 31.752 52.392 0 97.639-31.75 116.69-76.997 5.16-11.51 16.275-19.45 29.372-19.45 17.464 0 31.75 14.289 31.75 31.752 0 4.366-.793 8.334-2.381 12.303-28.974 67.87-96.445 115.9-175.43 115.9-17.464 0-31.751 14.288-31.751 31.75 0 17.465 14.288 31.752 31.75 31.752 140.11 0 254.02-113.91 254.02-254.02s-113.91-254.02-254.02-254.02l.006.005Z"/>
   </g>
   <defs>
      <clipPath id="a">
         <path fill="#fff" d="M0 0h1024v1024H0z"/>
      </clipPath>
   </defs>
</svg>

<svg width="1024" height="1024" viewBox="0 0 1024 1024" fill="none" xmlns="http://www.w3.org/2000/svg">
<g clip-path="url(#clip0_2_3234)">
<path d="M512 1024C794.77 1024 1024 794.77 1024 512C1024 229.23 794.77 0 512 0C229.23 0 0 229.23 0 512C0 794.77 229.23 1024 512 1024Z" fill="#BD9AFF"/>
<path d="M386.98 255.97C377.506 255.97 368.421 259.734 361.722 266.432C355.023 273.131 351.26 282.217 351.26 291.69C351.26 301.163 355.023 310.249 361.722 316.948C368.421 323.646 377.506 327.41 386.98 327.41C391.671 327.41 396.316 326.486 400.65 324.691C404.984 322.896 408.922 320.265 412.239 316.948C415.556 313.631 418.187 309.694 419.982 305.36C421.778 301.026 422.702 296.381 422.702 291.69C422.702 286.999 421.778 282.354 419.982 278.02C418.187 273.686 415.556 269.749 412.239 266.432C408.922 263.115 404.984 260.484 400.65 258.689C396.316 256.894 391.671 255.97 386.98 255.97ZM513.99 259.939C496.526 259.939 482.239 274.227 482.239 291.689C482.239 309.154 496.527 323.441 513.99 323.441C592.973 323.441 660.44 371.466 689.81 439.731C691.398 443.303 692.192 447.668 692.192 452.034C692.192 469.498 677.904 483.787 660.441 483.787C647.344 483.787 635.833 475.848 631.07 464.337C611.622 418.694 566.376 386.943 513.99 386.943H386.98C369.516 386.943 355.229 401.231 355.229 418.693V736.213C355.229 753.678 369.517 767.965 386.979 767.965C404.444 767.965 418.733 753.677 418.733 736.214V450.454H513.985C548.912 450.454 577.49 479.032 577.49 513.959C577.49 548.886 548.912 577.462 513.985 577.462C496.521 577.462 482.234 591.75 482.234 609.212C482.234 626.676 496.522 640.964 513.984 640.964C566.376 640.964 611.623 609.214 630.674 563.967C635.834 552.457 646.949 544.517 660.046 544.517C677.51 544.517 691.796 558.806 691.796 576.269C691.796 580.635 691.003 584.603 689.415 588.572C660.441 656.442 592.97 704.472 513.985 704.472C496.521 704.472 482.234 718.76 482.234 736.222C482.234 753.687 496.522 767.974 513.984 767.974C654.094 767.974 768.004 654.064 768.004 513.954C768.004 373.844 654.094 259.934 513.984 259.934L513.99 259.939Z" fill="white"/>
</g>
<defs>
<clipPath id="clip0_2_3234">
<rect width="1024" height="1024" fill="white"/>
</clipPath>
</defs>
</svg>
